assets/awsrepostprivate/original.svg

<svg height="64" viewBox="0 0 64 64" width="64" xmlns="http://www.w3.org/2000/svg"><g fill="none" fill-rule="evenodd"><path d="m0 0h64v64h-64z" fill="#c925d1"/><path d="m15.001 25h14.999v-2h-14.999zm7.398 14.99 1 1.733-3.712 2.143a1 1 0 0 1 -1 0l-18.187-10.5a1 1 0 0 1 -.5-.866v-21a1 1 0 0 1 .5-.866l18.187-10.5a1 1 0 0 1 1 0l18.186 10.5c.31.178.5.51.5.866v1.481h-2v-.904l-17.186-9.922-17.187 9.922v19.846l17.187 9.922zm6.893 2.01c.446-3.174 2.978-5.614 6.025-5.614 1.091 0 2.16.317 3.093.916 1.582 1.015 2.653 2.76 2.929 4.698zm1.085-12h-6.377a1 1 0 0 0 -1 1v3.585l-4.293-4.292a1 1 0 0 0 -.707-.293h-3c-3.308 0-6-2.69-6-6s2.692-6 6-6h21c3.309 0 6 2.691 6 6a5.98 5.98 0 0 1 -2.253 4.672c-.855-1.582-2.509-2.672-4.43-2.672a5.06 5.06 0 0 0 -4.94 4m4.94 4.107a3.057 3.057 0 0 1 -3.054-3.053 3.057 3.057 0 0 1 3.054-3.054 3.057 3.057 0 0 1 3.053 3.054 3.057 3.057 0 0 1 -3.053 3.053m4.174 1.511a8 8 0 0 0 -1.102-.58c1.196-.925 1.981-2.358 1.981-3.984 0-.12-.027-.232-.035-.35a7.97 7.97 0 0 0 3.665-6.704c0-4.41-3.589-8-8-8h-21c-4.411 0-8 3.59-8 8s3.589 8 8 8h2.586l5.707 5.706a1 1 0 0 0 1.09.217 1 1 0 0 0 .617-.923v-5h5.359a5.04 5.04 0 0 0 1.883 3.036c-2.942 1.291-5.019 4.374-5.019 7.964a1 1 0 0 0 1 1h14.187a1 1 0 0 0 1-1c0-3.047-1.465-5.807-3.919-7.382" fill="#fff" transform="translate(10 10)"/></g></svg>

<svg xmlns="http://www.w3.org/2000/svg" width="64" height="64" viewBox="0 0 64 64"><title>Icon-Architecture/48/Arch_AWS-rePost-Private_48</title><g id="Icon-Architecture/48/Arch_AWS-rePost-Private_48" fill="none" fill-rule="evenodd" stroke="none" stroke-width="1"><g id="Icon-Architecture-BG/48/Customer-Enablement" fill="#c925d1"><path id="Rectangle" d="M0 0h64v64H0z"/></g><g id="Icon-Service/48/AWS-rePost-Private_48" fill="#fff" transform="translate(10 10)"><path id="Fill-3" d="M15.001 25H30v-2H15.001zm7.398 14.99 1 1.733-3.712 2.143a1 1 0 0 1-1 0L.5 33.366A1 1 0 0 1 0 32.5v-21a1 1 0 0 1 .5-.866L18.687.134a1 1 0 0 1 1 0l18.186 10.5c.31.178.5.51.5.866v1.481h-2v-.904L19.187 2.155 2 12.077v19.846l17.187 9.922zM29.292 42c.446-3.174 2.978-5.614 6.025-5.614 1.091 0 2.16.317 3.093.916 1.582 1.015 2.653 2.76 2.929 4.698zm1.085-12H24a1 1 0 0 0-1 1v3.585l-4.293-4.292A1 1 0 0 0 18 30h-3c-3.308 0-6-2.69-6-6s2.692-6 6-6h21c3.309 0 6 2.691 6 6a5.98 5.98 0 0 1-2.253 4.672C38.892 27.09 37.238 26 35.317 26a5.06 5.06 0 0 0-4.94 4m4.94 4.107a3.057 3.057 0 0 1-3.054-3.053A3.057 3.057 0 0 1 35.317 28a3.057 3.057 0 0 1 3.053 3.054 3.057 3.057 0 0 1-3.053 3.053m4.174 1.511a8 8 0 0 0-1.102-.58c1.196-.925 1.981-2.358 1.981-3.984 0-.12-.027-.232-.035-.35A7.97 7.97 0 0 0 44 24c0-4.41-3.589-8-8-8H15c-4.411 0-8 3.59-8 8s3.589 8 8 8h2.586l5.707 5.706a1 1 0 0 0 1.09.217A1 1 0 0 0 25 37V32h5.359a5.04 5.04 0 0 0 1.883 3.036C29.3 36.327 27.223 39.41 27.223 43a1 1 0 0 0 1 1H42.41a1 1 0 0 0 1-1c0-3.047-1.465-5.807-3.919-7.382"/></g></g></svg>
